lib/healthicons/icons/outline/specialties/oncology.svg

<svg fill="none" height="48" viewBox="0 0 48 48" width="48" xmlns="http://www.w3.org/2000/svg"><g fill="#333"><path clip-rule="evenodd" d="m39 8h-30c-.55229 0-1 .44772-1 1v30c0 .5523.44772 1 1 1h30c.5523 0 1-.4477 1-1v-30c0-.55229-.4477-1-1-1zm-30-2c-1.65685 0-3 1.34315-3 3v30c0 1.6569 1.34315 3 3 3h30c1.6569 0 3-1.3431 3-3v-30c0-1.65685-1.3431-3-3-3z" fill-rule="evenodd"/><path d="m19.2792 27.1331 4.0204 5.1956-4.0204 5.1337-5.0719-3.8967z"/><path d="m16.9288 14.4534 2.1648-2.8452c.8041-.9897 1.9793-1.6082 3.2163-1.6082h3.5875c.6185 0 1.237.1237 1.7937.433.5566.2474 1.0515.6803 1.4226 1.1752l2.2267 2.907c1.7318 2.2885 1.7318 5.443 0 7.6697l-2.3504 2.9689-4.0204-5.1956 2.4741-2.1545s-.0619 0-.0619-.0618c-.433-.2474-.9278-.3711-1.4226-.3711h-3.6493c-.4948 0-.9896.1855-1.4226.4329l2.4741 2.1545 5.8141 7.4223 4.8245 6.1852-5.01 3.8967-12.0612-15.3394c-1.7319-2.2266-1.7319-5.3811 0-7.6696zm3.0307 1.1752c.0619.0618.0619.1237.1238.1855.1237-.1237.3092-.1855.4948-.2474.5566-.2474 1.1752-.433 1.7937-.433h3.5874c.6185 0 1.2371.1237 1.7937.433.1237.0619.3093.1856.433.2474.433-.6185.6804-.4844.4948-1.2267-.0618-.4329-.2474-.8659-.5567-1.237-.2474-.3093-.6185-.6185-.9896-.8041s-.8041-.3093-1.237-.3093h-3.5875c-.8659 0-1.67.433-2.2266 1.1134-.6804.9278-.8041 1.2885-.1238 2.2782z"/></g></svg>

<svg width="48" height="48" viewBox="0 0 48 48" fill="none" xmlns="http://www.w3.org/2000/svg">
<path fill-rule="evenodd" clip-rule="evenodd" d="M39 8H9C8.44771 8 8 8.44772 8 9V39C8 39.5523 8.44772 40 9 40H39C39.5523 40 40 39.5523 40 39V9C40 8.44771 39.5523 8 39 8ZM9 6C7.34315 6 6 7.34315 6 9V39C6 40.6569 7.34315 42 9 42H39C40.6569 42 42 40.6569 42 39V9C42 7.34315 40.6569 6 39 6H9Z" fill="#333333"/>
<path d="M19.2792 27.1331L23.2996 32.3287L19.2792 37.4624L14.2073 33.5657L19.2792 27.1331Z" fill="#333333"/>
<path d="M16.9288 14.4534L19.0936 11.6082C19.8977 10.6185 21.0729 10 22.3099 10H25.8974C26.5159 10 27.1344 10.1237 27.6911 10.433C28.2477 10.6804 28.7426 11.1133 29.1137 11.6082L31.3404 14.5152C33.0722 16.8037 33.0722 19.9582 31.3404 22.1849L28.99 25.1538L24.9696 19.9582L27.4437 17.8037C27.4437 17.8037 27.3818 17.8037 27.3818 17.7419C26.9488 17.4945 26.454 17.3708 25.9592 17.3708H22.3099C21.8151 17.3708 21.3203 17.5563 20.8873 17.8037L23.3614 19.9582L29.1755 27.3805L34 33.5657L28.99 37.4624L16.9288 22.123C15.1969 19.8964 15.1969 16.7419 16.9288 14.4534ZM19.9595 15.6286C20.0214 15.6904 20.0214 15.7523 20.0833 15.8141C20.207 15.6904 20.3925 15.6286 20.5781 15.5667C21.1347 15.3193 21.7533 15.1337 22.3718 15.1337H25.9592C26.5777 15.1337 27.1963 15.2574 27.7529 15.5667C27.8766 15.6286 28.0622 15.7523 28.1859 15.8141C28.6189 15.1956 28.8663 15.3297 28.6807 14.5874C28.6189 14.1545 28.4333 13.7215 28.124 13.3504C27.8766 13.0411 27.5055 12.7319 27.1344 12.5463C26.7633 12.3607 26.3303 12.237 25.8974 12.237H22.3099C21.444 12.237 20.6399 12.67 20.0833 13.3504C19.4029 14.2782 19.2792 14.6389 19.9595 15.6286Z" fill="#333333"/>
</svg>
